X:36
T:[untitled]
T:[obliterated title:] The Douglas Tragedy
Z:Jack Campin - http://www.campin.me.uk
S:Blaikie MS (NLS MS.1578) p13, Blaikie #35
M:2/4
L:1/8
V:1 midi program 1 74
V:2 midi program 1 46 bass middle = d transpose -24
Q:1/4=60
K:C
[V:1] G|cc/d/ cE  |F/G/A/B/ cA   |GF/E/    D>C     |C2z
[V:2] z|cc'```cc' |f```d    ef   |g2       G2      |cGC
%
[V:1] G|GA/B/ ce  |fe       dc/d/|eG       A/G/E/F/|G2 z
[V:2] z|cc'   c'_b|fe```````de   |c2       c2      |G2 z
%
[V:1] E|GA/B/ cd  |f```e    dc/d/|eG       A/G/E/F/|G2 z
[V:2] z|gf````ed  |c2       g2   |c2       c2      |G2 z
%
[V:1] G|c>d```cE  |GA/B/    cE   |G/F/E/F/ D>C     |C2 z|]
[V:2] z|cc'```cz  |gf```````ec   |g2       G2      |c2 z|]
W:Transcription (c) Jack Campin 2009, no mirroring or republication without permission

